X: 141
T:Missa Ad fugam / Kyrie
N: Derived from Jos1201a-Missa_Ad_fugam-Kyrie.krn
C: Josquin des Prez
%%abc-version 2.0
%%abcx-abcm2ps-target-version 5.9.1 (29 Sep 2008)
%%abc-creator hum2abc beta
%%abcx-conversion-date 2019/02/12 16:15:45
%%abc-edited-by Jesse Rodin
%%abc-edited-by Jesse Rodin; Victoria Chang 2012/02/11
%%abcx-initial-encoding-date 2012/02/11/
%%humdrum-veritas 3585681355
%%humdrum-veritas-data 4222770204
%%linebreak <none>
%%barnumbers 0
L: 1/4
M: 3/1
Q: 1/2=120
%%staves [1 2 3 4]
V: 1 clef=treble
V: 2 clef=treble-8
V: 3 clef=treble-8
V: 4 clef=bass
K: Bb
[V:1] G8G4 | 
[V:2] G6A2B3c | 
[V:3] z12 | 
[V:4] G,8E,4 | 
[V:1] A2A4GF=E4 | 
[V:2] A8z2A2 | 
[V:3] c8c4 | 
[V:4] F,6G,2A,4 | 
[V:1] D4z4A4 | 
[V:2] B3AF2G2D4 | 
[V:3] d2d4cBA4 | 
[V:4] z2D,4G,4^F,2 | 
[V:1] B4A2A4G2 | 
[V:2] z2d4c2A2B2 | 
[V:3] G4z4d4 | 
[V:4] G,4D,2F,4E,2 | 
[V:1] G4z4F2G2 | 
[V:2] (3c2G2A2B8 | 
[V:3] e4d2d4c2 | 
[V:4] C,4B,,8 | 
[V:1] A8G4 | 
[V:2] A3Bc2F2G4 | 
[V:3] c4z4B2c2 | 
[V:4] F,8E,4 | 
[V:1] F2A3GF2=E4 | 
[V:2] A8z2c2 | 
[V:3] d8c4 | 
[V:4] D,8A,4 | 
[V:1] D2B3AG4^F2 | 
[V:2] d2G2B3cd4- | 
[V:3] B2d3cB2A4 | 
[V:4] B,4G,4D,4 | 
[V:1] G12 ||  
[V:2] d12 ||  
[V:3] G12 ||  
[V:4] G,12 ||  
[V:1]  [K:Bb] [K:clef=treble][M:2/1]G8- | 
[V:2]  [K:Bb] [K:clef=treble-8][M:2/1]d6c2 | 
[V:3]  [K:Bb] [K:clef=treble-8][M:2/1]z8 | 
[V:4]  [K:Bb] [K:clef=bass][M:2/1]G,6A,2 | 
[V:1] G8- | 
[V:2] d4e4 | 
[V:3] z8 | 
[V:4] B,4C4 | 
[V:1] G8 | 
[V:2] d2d4cB | 
[V:3] z8 | 
[V:4] B,4G,4 | 
[V:1] A4c4- | 
[V:2] A4F3G | 
[V:3] c8- | 
[V:4] F,4A,4- | 
[V:1] c2B2A4 | 
[V:2] A6c2- | 
[V:3] c8- | 
[V:4] A,2G,2F,4 | 
[V:1] G8 | 
[V:2] c2B2G4 | 
[V:3] c8 | 
[V:4] E,8 | 
[V:1] F8 | 
[V:2] A4B4 | 
[V:3] d4f4- | 
[V:4] D,4B,,4 | 
[V:1] z8 | 
[V:2] F4B4- | 
[V:3] f2e2d4 | 
[V:4] D,6E,2 | 
[V:1] z8 | 
[V:2] B4A4 | 
[V:3] c8 | 
[V:4] F,8 | 
[V:1] F8 | 
[V:2] B3cd4 | 
[V:3] B8 | 
[V:4] B,,8 | 
[V:1] G4D4 | 
[V:2] e4f2d2- | 
[V:3] z8 | 
[V:4] z8 | 
[V:1] E8 | 
[V:2] d2c2c2B2 | 
[V:3] z8 | 
[V:4] z8 | 
[V:1] D8 | 
[V:2] d6cB | 
[V:3] B8 | 
[V:4] z4G,4 | 
[V:1] z8 | 
[V:2] A4B2G2- | 
[V:3] c4G4 | 
[V:4] F,4E,4 | 
[V:1] z8 | 
[V:2] G2^F2^F2=E2 | 
[V:3] A8 | 
[V:4] D,8 | 
[V:1] z4G4 | 
[V:2] G8 | 
[V:3] G8 | 
[V:4] B,8 | 
[V:1] =E4F4 | 
[V:2] z4c4 | 
[V:3] z8 | 
[V:4] A,8 | 
[V:1] G4B4 | 
[V:2] d6=e2 | 
[V:3] z8 | 
[V:4] G,8 | 
[V:1] A8 | 
[V:2] f4f4 | 
[V:3] z4c4 | 
[V:4] F,6E,2 | 
[V:1] z8 | 
[V:2] z4d4 | 
[V:3] A4B4 | 
[V:4] F,4G,4 | 
[V:1] z8 | 
[V:2] =e4g4 | 
[V:3] c4e4 | 
[V:4] C,8 | 
[V:1] A6G2 | 
[V:2] f6=ed | 
[V:3] d8 | 
[V:4] z8 | 
[V:1] A4B2A2- | 
[V:2] c2d4cB | 
[V:3] z8 | 
[V:4] z8 | 
[V:1] A2GF=E4 | 
[V:2] A2d4^c2 | 
[V:3] z8 | 
[V:4] z8 | 
[V:1] D4z4 | 
[V:2] d2cBA2G2 | 
[V:3] d6c2 | 
[V:4] D,6E,2 | 
[V:1] z8 | 
[V:2] A4B4 | 
[V:3] d4e2d2- | 
[V:4] F,4G,4 | 
[V:1] z4F4 | 
[V:2] A4d4- | 
[V:3] d2cBA4 | 
[V:4] D,8 | 
[V:1] G3AB2A2- | 
[V:2] d2G2d3c | 
[V:3] G4z4 | 
[V:4] G,6D,2 | 
[V:1] A2GF=E4 | 
[V:2] A2d4^c2 | 
[V:3] z8 | 
[V:4] F,2G,2A,4 | 
[V:1] D2=EFG2B2- | 
[V:2] d4z2d2 | 
[V:3] z4B4 | 
[V:4] B,4G,4 | 
[V:1] BAc3BB2- | 
[V:2] c2A2c2G2 | 
[V:3] c3de2d2- | 
[V:4] z2A,4B,2 | 
[V:1] B2AG^F3=E | 
[V:2] B3cd4- | 
[V:3] d2cBA4 | 
[V:4] G,4D,4 | 
[V:1] G8- | 
[V:2] d2e3Bc2 | 
[V:3] G8- | 
[V:4] G,8- | 
[V:1] G8 ||  
[V:2] d8 ||  
[V:3] G8 ||  
[V:4] G,8 ||  
[V:1]  [K:Bb] [K:clef=treble][M:3/1]D8=E2F2 | 
[V:2]  [K:Bb] [K:clef=treble-8][M:3/1]G8c4 | 
[V:3]  [K:Bb] [K:clef=treble-8][M:3/1]z12 | 
[V:4]  [K:Bb] [K:clef=bass][M:3/1]B,8A,4 | 
[V:1] G8z4 | 
[V:2] d6g2f2d2 | 
[V:3] G8A2B2 | 
[V:4] G,6E,2F,2G,2 | 
[V:1] G8A2=B2 | 
[V:2] =e2g3c=e2d4 | 
[V:3] c8z4 | 
[V:4] C,8F,2G,2 | 
[V:1] c8=B4 | 
[V:2] c4z4z4 | 
[V:3] c8d2=e2 | 
[V:4] A,8G,4 | 
[V:1] A2c4=BAG4 | 
[V:2] c8c4 | 
[V:3] f8=e4 | 
[V:4] F,8C,4 | 
[V:1] F2D2F3GA4 | 
[V:2] A2d3cB2A4 | 
[V:3] d2f4=edc4 | 
[V:4] D,2B,,2D,3E,F,4 | 
[V:1] D4z4F4 | 
[V:2] z2B2G2B2A4 | 
[V:3] B2G2B3cd4 | 
[V:4] G,8D,4 | 
[V:1] G3AB8 | 
[V:2] B4G8 | 
[V:3] G4z4B4 | 
[V:4] z2G,6E,2G,2 | 
[V:1] A2GFGF=EDC4 | 
[V:2] z12 | 
[V:3] c3de8 | 
[V:4] F,4C4A,4 | 
[V:1] D4z4A4 | 
[V:2] G2d2=e2f3=edc | 
[V:3] d2cBcBAG^F4 | 
[V:4] B,4A,8 | 
[V:1] B4G2A4F2 | 
[V:2] B2G2B2A2F4 | 
[V:3] G4z4d4 | 
[V:4] G,3E,G,2F,2D,4 | 
[V:1]  [K:F] G4A4D4 | 
[V:2]  [K:F] z12 | 
[V:3]  [K:F] _e4c2d4B2 | 
[V:4]  [K:F] C,4F,4G,4 | 
[V:1] z2A4F2G2B2 | 
[V:2] e4f4e2d2 | 
[V:3] c4d4G4 | 
[V:4] A,4z2D,2E,2G,2 | 
[V:1] A6G6 | 
[V:2] f6d2edcB | 
[V:3] z2d4B2c2_e2 | 
[V:4] F,2D,2F,2G,2C,4 | 
[V:1] F2D2F2G2E4 | 
[V:2] A2f2d2e2c3B | 
[V:3] d6c6 | 
[V:4] D,4z4A,4 | 
[V:1] D2B3AG4^F2 | 
[V:2] GABcd8- | 
[V:3] B2G2B2c2A4 | 
[V:4] B,4G,4D,4 | 
[V:1] G12 |]  
[V:2] d12 |]  
[V:3] G12 |]  
[V:4] G,12 |]  



